static/assets/template/assets/img/icons/essential/detailed/Add_to_cart.svg

<svg height="148" viewBox="0 0 139 148" width="139" xmlns="http://www.w3.org/2000/svg"><g fill="none" fill-rule="evenodd" transform="translate(1 2)"><path d="m91.9.2h-81.4c-5.4 0-9.7 4.3-9.7 9.7 0-1.1 0 114.5 0 118.2 0 5.4 4.3 9.7 9.7 9.7h60.3l30.8-51.2c0-33.6 0-75.5 0-76.6 0-5.5-4.3-9.8-9.7-9.8z" fill-rule="nonzero"/><path d="m.8 117.7h82.1l-12 20h-60.3c-5.4 0-9.7-4.3-9.7-9.7v-10.3z" fill-rule="nonzero"/><path d="m101.6 9.9v3.3h-100.8v-3.3c0-5.4 4.3-9.7 9.7-9.7h81.4c5.4 0 9.7 4.3 9.7 9.7z" fill-rule="nonzero"/><path d="m114.3 80.4 18.9 27.2c4.7 6.8 3 16.1-3.7 20.8l-20.4 14.2c-2.1 1.4-4.5 2.1-7 1.9-7.6-.7-24.1-2.4-28-4 0 0 0 0 0-.1-1.1-.4-2.2-1.2-2.9-2.2l-10.3-14.8c5.5-3.8 13.1-2.5 17 3.1l5.2 7.5 1.8-1.3-30.4-43.7c-1.9-2.8-1.2-6.6 1.5-8.5 2.8-1.9 6.6-1.2 8.5 1.5l14.8 21.3 1.7-1.2-4.9-7.1c-1.9-2.8-1.2-6.6 1.5-8.5 2.8-1.9 6.6-1.2 8.5 1.5l5 7.2 1.9-1.3-2.5-3.6c-1.7-2.6-1.1-6.1 1.5-7.8 2.6-1.8 6.1-1.2 7.9 1.4l2.5 3.6 2.1-1.4c-1.2-2.5-.4-5.5 1.9-7.1 2.5-1.8 6.1-1.1 7.9 1.4z" fill-rule="nonzero"/><path d="m115.6 82.4 18 25.9c4.5 6.4 2.6 15.5-4.1 20.2l-20.3 14.1c-2.1 1.4-4.5 2.1-7 1.9-7.5-.5-24.1-3.2-27.9-4.7 0 0 .4 1.4.4 1.4-1.1-.4-2.6-2.6-3.3-3.6l-9.2-12.6c5.5-3.8 13-2.7 16.6 2.6l5 7.1 1.8-1.3-28.9-41.5c-1.8-2.6-1.1-6.3 1.7-8.2s6.5-1.3 8.3 1.3l14.1 20.2 1.7-1.2-4.7-6.8c-1.8-2.6-1.1-6.3 1.7-8.2s6.5-1.3 8.3 1.3l4.8 6.8 1.9-1.3-2.4-3.4c-1.6-2.4-.9-5.8 1.6-7.6 2.6-1.8 6-1.3 7.7 1.2l2.4 3.4 2.1-1.4c-1.1-2.4-.3-5.3 2-6.9 2.5-1.7 6-1.2 7.7 1.3z" fill-rule="nonzero"/><g stroke-linecap="round" stroke-linejoin="round" stroke-width="3"><path d="m74.4 117.7 10.4 15-1.8 1.3-5.2-7.5c-3.8-5.5-11.4-6.9-17-3.1l10.3 14.8c.7 1.1 1.8 1.8 2.9 2.2v.1c3.9 1.6 20.4 3.3 28 4 2.5.2 5-.4 7-1.9l20.4-14.2c6.8-4.7 8.4-14 3.7-20.8l-18.9-27.2c-1.8-2.6-5.3-3.2-7.9-1.4-2.3 1.6-3.1 4.6-1.9 7.1l-2.1 1.4-2.5-3.6c-1.8-2.6-5.3-3.2-7.9-1.4s-3.2 5.3-1.5 7.8l2.5 3.6-1.9 1.3-5-7.2c-1.9-2.8-5.7-3.5-8.5-1.5-2.8 1.9-3.4 5.7-1.5 8.5l4.9 7.1-1.7 1.2-14.8-21.3c-1.9-2.8-5.7-3.4-8.5-1.5s-3.4 5.7-1.5 8.5l16.3 23.5z"/><g><path d="m.8 16.8c0-4.5 0-7.1 0-6.9 0-5.4 4.3-9.7 9.7-9.7h81.4c5.4 0 9.7 4.3 9.7 9.7v76.6"/><path d="m.8 24.3c0-.4 0-.7 0-1.1"/><path d="m70.8 137.7h-60.3c-5.4 0-9.7-4.3-9.7-9.7 0-2.6 0-60.5 0-94.3"/><circle cx="51.2" cy="127.9" r="3.7"/><g transform="translate(43 6)"><path d="m8.8.8h8.4"/><path d="m.9.8h.4"/></g><path d="m64.3 117.5h-63.5"/><path d="m9.7 13.5h91.9"/></g><path d="m11.1 36.9h4.1c.8 0 1.5.5 1.8 1.2l7.1 17.9c.4 1.1 1.5 1.8 2.6 1.8h16c1.1 0 2.2-.7 2.6-1.7l5.7-13.8c.3-.7-.2-1.5-1-1.5h-23.5"/><circle cx="27" cy="66.4" r="2.9"/><circle cx="41.7" cy="66.4" r="2.9"/><path d="m64.3 41.9h24.9"/><path d="m64.3 53.5h24.9"/><path d="m64.3 65h14.4"/></g></g></svg>

<?xml version="1.0" encoding="UTF-8"?>
<svg width="139px" height="148px" viewBox="0 0 139 148" version="1.1" xmlns="http://www.w3.org/2000/svg" xmlns:xlink="http://www.w3.org/1999/xlink">
    <!-- Generator: Sketch 51.2 (57519) - http://www.bohemiancoding.com/sketch -->
    <title>Add_to_cart</title>
    <desc>Created with Sketch.</desc>
    <defs></defs>
    <g id="Page-1" stroke="none" stroke-width="1" fill="none" fill-rule="evenodd">
        <g id="Add_to_cart" transform="translate(1.000000, 2.000000)">
            <path d="M91.9,0.2 L10.5,0.2 C5.1,0.2 0.8,4.5 0.8,9.9 C0.8,8.8 0.8,124.4 0.8,128.1 C0.8,133.5 5.1,137.8 10.5,137.8 L70.8,137.8 L101.6,86.6 C101.6,53 101.6,11.1 101.6,10 C101.6,4.5 97.3,0.2 91.9,0.2 Z" id="Shape" class="fill-neutral" fill-rule="nonzero"></path>
            <path d="M0.8,117.7 L82.9,117.7 L70.9,137.7 L10.6,137.7 C5.2,137.7 0.9,133.4 0.9,128 L0.9,117.7 L0.8,117.7 Z" id="Shape" class="fill-primary-200" fill-rule="nonzero"></path>
            <path d="M101.6,9.9 L101.6,13.2 L0.8,13.2 L0.8,9.9 C0.8,4.5 5.1,0.2 10.5,0.2 L91.9,0.2 C97.3,0.2 101.6,4.5 101.6,9.9 Z" id="Shape" class="fill-primary-200" fill-rule="nonzero"></path>
            <path d="M114.3,80.4 L133.2,107.6 C137.9,114.4 136.2,123.7 129.5,128.4 L109.1,142.6 C107,144 104.6,144.7 102.1,144.5 C94.5,143.8 78,142.1 74.1,140.5 C74.1,140.5 74.1,140.5 74.1,140.4 C73,140 71.9,139.2 71.2,138.2 L60.9,123.4 C66.4,119.6 74,120.9 77.9,126.5 L83.1,134 L84.9,132.7 L54.5,89 C52.6,86.2 53.3,82.4 56,80.5 C58.8,78.6 62.6,79.3 64.5,82 L79.3,103.3 L81,102.1 L76.1,95 C74.2,92.2 74.9,88.4 77.6,86.5 C80.4,84.6 84.2,85.3 86.1,88 L91.1,95.2 L93,93.9 L90.5,90.3 C88.8,87.7 89.4,84.2 92,82.5 C94.6,80.7 98.1,81.3 99.9,83.9 C99.9,83.9 99.9,83.9 99.9,83.9 L102.4,87.5 L104.5,86.1 C103.3,83.6 104.1,80.6 106.4,79 C108.9,77.2 112.5,77.9 114.3,80.4 Z" id="Shape" class="fill-neutral" fill-rule="nonzero"></path>
            <path d="M115.6,82.4 L133.6,108.3 C138.1,114.7 136.2,123.8 129.5,128.5 L109.2,142.6 C107.1,144 104.7,144.7 102.2,144.5 C94.7,144 78.1,141.3 74.3,139.8 C74.3,139.8 74.7,141.2 74.7,141.2 C73.6,140.8 72.1,138.6 71.4,137.6 L62.2,125 C67.7,121.2 75.2,122.3 78.8,127.6 L83.8,134.7 L85.6,133.4 L56.7,91.9 C54.9,89.3 55.6,85.6 58.4,83.7 C61.2,81.8 64.9,82.4 66.7,85 L80.8,105.2 L82.5,104 L77.8,97.2 C76,94.6 76.7,90.9 79.5,89 C82.3,87.1 86,87.7 87.8,90.3 L92.6,97.1 L94.5,95.8 L92.1,92.4 C90.5,90 91.2,86.6 93.7,84.8 C96.3,83 99.7,83.5 101.4,86 C101.4,86 101.4,86 101.4,86 L103.8,89.4 L105.9,88 C104.8,85.6 105.6,82.7 107.9,81.1 C110.4,79.4 113.9,79.9 115.6,82.4 Z" id="Shape" class="fill-primary-100" fill-rule="nonzero"></path>
            <path d="M74.4,117.7 L84.8,132.7 L83,134 L77.8,126.5 C74,121 66.4,119.6 60.8,123.4 L71.1,138.2 C71.8,139.3 72.9,140 74,140.4 C74,140.4 74,140.4 74,140.5 C77.9,142.1 94.4,143.8 102,144.5 C104.5,144.7 107,144.1 109,142.6 L129.4,128.4 C136.2,123.7 137.8,114.4 133.1,107.6 L114.2,80.4 C112.4,77.8 108.9,77.2 106.3,79 C104,80.6 103.2,83.6 104.4,86.1 L102.3,87.5 L99.8,83.9 C99.8,83.9 99.8,83.9 99.8,83.9 C98,81.3 94.5,80.7 91.9,82.5 C89.3,84.3 88.7,87.8 90.4,90.3 L92.9,93.9 L91,95.2 L86,88 C84.1,85.2 80.3,84.5 77.5,86.5 C74.7,88.4 74.1,92.2 76,95 L80.9,102.1 L79.2,103.3 L64.4,82 C62.5,79.2 58.7,78.6 55.9,80.5 C53.1,82.4 52.5,86.2 54.4,89 L70.7,112.5 L74.4,117.7 Z" id="Shape" class="stroke-primary" stroke-width="3" stroke-linecap="round" stroke-linejoin="round"></path>
            <g id="Group" class="stroke-primary" stroke-linecap="round" stroke-linejoin="round" stroke-width="3">
                <path d="M0.8,16.8 C0.8,12.3 0.8,9.7 0.8,9.9 C0.8,4.5 5.1,0.2 10.5,0.2 L91.9,0.2 C97.3,0.2 101.6,4.5 101.6,9.9 C101.6,11 101.6,52.9 101.6,86.5" id="Shape"></path>
                <path d="M0.8,24.3 C0.8,23.9 0.8,23.6 0.8,23.2" id="Shape"></path>
                <path d="M70.8,137.7 L10.5,137.7 C5.1,137.7 0.8,133.4 0.8,128 C0.8,125.4 0.8,67.5 0.8,33.7" id="Shape"></path>
                <circle id="Oval" cx="51.2" cy="127.9" r="3.7"></circle>
                <g transform="translate(43.000000, 6.000000)" id="Shape">
                    <path d="M8.8,0.8 L17.2,0.8"></path>
                    <path d="M0.9,0.8 L1.3,0.8"></path>
                </g>
                <path d="M64.3,117.5 L0.8,117.5" id="Shape"></path>
                <path d="M9.7,13.5 L101.6,13.5" id="Shape"></path>
            </g>
            <path d="M11.1,36.9 L15.2,36.9 C16,36.9 16.7,37.4 17,38.1 L24.1,56 C24.5,57.1 25.6,57.8 26.7,57.8 L42.7,57.8 C43.8,57.8 44.9,57.1 45.3,56.1 L51,42.3 C51.3,41.6 50.8,40.8 50,40.8 L26.5,40.8" id="Shape" class="stroke-primary" stroke-width="3" stroke-linecap="round" stroke-linejoin="round"></path>
            <circle id="Oval" class="stroke-primary" stroke-width="3" stroke-linecap="round" stroke-linejoin="round" cx="27" cy="66.4" r="2.9"></circle>
            <circle id="Oval" class="stroke-primary" stroke-width="3" stroke-linecap="round" stroke-linejoin="round" cx="41.7" cy="66.4" r="2.9"></circle>
            <path d="M64.3,41.9 L89.2,41.9" id="Shape" class="stroke-primary" stroke-width="3" stroke-linecap="round" stroke-linejoin="round"></path>
            <path d="M64.3,53.5 L89.2,53.5" id="Shape" class="stroke-primary" stroke-width="3" stroke-linecap="round" stroke-linejoin="round"></path>
            <path d="M64.3,65 L78.7,65" id="Shape" class="stroke-primary" stroke-width="3" stroke-linecap="round" stroke-linejoin="round"></path>
        </g>
    </g>
</svg>
